X:1
T:Pawtuxet
T:A minor                    Jacob French, 1802 
T:Isaac Watts, 1709 (Hymn 39, Book 2)           86. 86. (C. M.)
T:Transcribed from Harmony of Harmony, 1802
%%score [ 1 2 3 4 ]
L:1/8
Q:1/4=110
M:4/4
K:C
V:1 treble nm="Voice"
V:2 treble nm="Voice"
V:3 treble-8 nm="Tenor"
V:4 bass nm="Bass"
V:1
"_Our days, alas! our  mor–tal  days  Are  short  and    wretched    too;                                                                                                                And    well   the   pat–riarch  knew.    'Tis" c4 | %1
 e2 ed c2 B2 | Ac BA B2 AB | cd ef gf ed | (c3 B A4) |: z8 | z8 | z8 | z4 (c2 d2) | ed cd ed cB | %10
 A8 :| z4 c4 | %12
"_but  at   best   a   narrow bound That heaven al –lows to men,  And  pains         and     sins    run        through       the round  Of    three  –  score                 years    and   ten.         Well," e2 ed c2 cd | %13
 e2 f2 g2 f2 | e>d c2 d2 c2 | B6 B2 | (c4 B2) A2 | B6 c>B | (A2 B2 cd) e2 | e6 e2 | %20
 (3(e2 d2 c2) fedc | (B2 A2) ^G4 | A8 |[M:2/4][Q:1/4=60] z2 A2 | %24
"_if     ye   must  be      sad          and           few,    Run            on,   my   days   in      haste,              Run      on,  my days,  Run   on     my   days,  Run     on     my     days   in     haste;" e c A B | %25
 cA BG | A2 e/f/e/d/ | c c c B | B3 B | A B B d | e E/F/ G A/B/ | c/d/ e d/c/ B | A4 |: %33
[M:6/8]"_Moments of   sin  and     months   of   woe,   Ye       can  –   not     fly           too    fast.                         Let heavenly love  pre – pare  my    soul,  And      call     her     to     the" c c c B2 c/d/ | %34
 e/c/d B cA B | Bd B c/B/A ^G | A3- A3 ::[M:4/4][Q:1/4=120] z4 A4 | c2 c2 c>d e2 | d2 d>c B>c d2 | %40
 e2 d2 c2 d>e | %41
"_skies, Where years of long sal–va–tion roll,   And    glo   –  ry      ne   –  ver       dies,                        Where years of   long   sal  –  va–tion roll,  And    glo  –  ry     ne  –  ver   dies." d6 e>d | %42
 c2 c2 d2 dc | B2 B2 c2 cd | e2 ed c2 cd | e6 B2 | c2 c2 cB A2 | B2 c2 d2 cd | ed cA ^G2 G2 | A8 :| %50
V:2
"_Our days, alas!  our  mor–tal  days  Are   short  and  wretched     too;            Evil and few, the patriarch says, And well the patriarch knew. And well the   pat– riarch  knew.     'Tis" A4 | %1
 A2 GF E2 E2 | EF G2 G2 A2 | EF GF E2 E2 | E8 |: G2 G F E3 E | A2 A2 ^G2 A2 | B2 A2 G2 G2 | A4 G4 | %9
 A2 E2 E2 E2 | E8 :| z4 E4 | %12
"_but  at   best   a   narrow bound That heaven al –lows to men,  And  pains         and     sins    run        through       the round  Of    three  –  score                 years    and   ten." A2 A2 G2 G2 | %13
 c2 A2 B2 B2 | A2 GA B2 A2 | G6 G2 | (A4 GF) EF | G6 GF | E6 A2 | G6 G2 | A4 A4 | (3(G2 F2 E2) E4 | %22
 E8 |[M:2/4] z4 | %24
"_Well,        if     ye    must   be   sad  and    few,   Run             on,  my  days, Run    on   my  days  in       haste,        Run             on,    my  days, Run     on     my     days   in     haste;" E2 E E | %25
 E E E E | E2 A2 | A A A G | G G G G/F/ | E2 G2 | G G/F/ E F | G G F E | E4 |: %33
[M:6/8]"_Moments of   sin  and     months   of   woe,   Ye       can  –   not     fly           too    fast.                         Let heavenly love  pre – pare  my    soul,  And      call     her     to     the" A E E/F/ G2 G/F/ | %34
 ED E E2 G | GA G G/F/E E | E3- E3 ::[M:4/4] z4 E4 | A2 A2 A2 A2 | G2 G2 G2 GF | EF G2 G2 A2 | %41
"_skies, Where years of long sal–va–tion roll,   And    glo   –  ry      ne   –  ver       dies,                        Where years of   long   sal  –  va–tion roll,  And    glo  –  ry     ne  –  ver   dies." B6 B2 | %42
 A2 A2 A2 A2 | G2 G2 G2 G2 | A2 A2 E2 A2 | G6 G2 | A2 A2 A2 EF | G2 G2 A2 G2 | A2 GF E2 E2 | E8 :| %50
V:3
"_Our days, alas!  our  mor–tal  days  Are   short  and  wretched     too;                                                               And well the patriarch knew.    And well the   pat– riarch  knew.     'Tis" e4 | %1
 c2 B2 A2 B2 | c2 d2 e2 c2 | gf ed c2 B2 | A8 |: z8 | z4 z2 ef | g2 f2 e2 d2 | e6 d2 | %9
 c2 A2 BA ^G2 | A8 :| z4 A4 | %12
"_but  at   best   a   narrow bound That heaven al –lows to men,  And  pains         and     sins    run        through       the round  Of    three  –  score                 years    and   ten.         Well," c2 cd e2 ef | %13
 g2 d2 d>c B2 | c>d ef g2 f2 | e6 e2 | (f2 e2 d2) c2 | d6 e>d | (c2 B2 AB) c2 | B6 B2 | %20
 (3(c2 d2 e2) (3(d2 e2 f2) | (3(e2 d2 c2) B4 | A8 |[M:2/4] z2 e2 | %24
"_if     ye   must  be      sad          and           few,    Run            on,   my   days   in      haste,              Run      on,  my days,  Run   on     my   days,  Run     on     my     days   in     haste;" c A c d | %25
 c2 B2 | A2 A/B/c/d/ | e f e ^d | e3 e/d/ | c A d B | G B c d | e/d/ c/B/ A ^G | A4 |: %33
[M:6/8]"_Moments of   sin  and     months   of   woe,   Ye       can  –   not     fly           too    fast.                         Let heavenly love  pre – pare  my    soul,  And      call     her     to     the" e a e d2 e/f/ | %34
 g2 ^G c2 d | ef d e/d/c B | A3- A3 ::[M:4/4] z4 A4 | e2 e2 e>d c2 | d2 d2 d>c B2 | c2 d2 e2 f2 | %41
"_skies, Where years of long sal–va–tion roll, ____________________________________________________________  And     glo       –         ry      ne        –        ver          dies." g6 g>f | %42
 e2 e2 f2 fe | d2 d2 (e>fed | c>dcB A>BAG | c>dcd e>fed | e3 f ed) c2 | (d2 e2 f2) ed | %48
 c4 (BA B2) | A8 :| %50
V:4
"_Our days, alas!  our  mor–tal  days  Are   short  and  wretched     too;            Evil and few, the patriarch says, And well the patriarch knew. And well the   pat– riarch  knew.     'Tis" A,4 | %1
 A,2 E,2 A,,2 E,2 | A,2 G,F, E,2 F,2 | E,D, C,D, E,2 E,2 | A,,8 |: E,2 E, D, C,3 C, | %6
 D,2 D,2 E,2 A,2 | G,2 A,B, C2 B,2 | (A,3 B, C2) B,2 | A,2 A,2 E,2 E,2 | A,,8 :| z4 A,,4 | %12
"_but  at   best   a   narrow bound That heaven al –lows to men,  And  pains         and     sins    run        through       the round  Of    three  –  score                 years    and   ten.         Well," A,2 A,B, C2 C2 | %13
 C2 D2 G,2 G,2 | A,>B, C2 G,2 A,2 | E,6 E,2 | (A,4 B,2) C2 | G,6 E,2 | (A,2 ^G,2 A,2) A,2 | %19
 E,6 E,2 | A,4 D,4 | E,4 E,4 | A,,8 |[M:2/4] z2 A,2 | %24
"_if     ye   must  be      sad          and           few,    Run            on,   my   days. Run   on    my  days  in       haste,       Run            on     my   days,  Run    on     my     days   in     haste;" A, A, A, ^G, | %25
 A,2 E,2 | A,,2 A,2 | A, A, A, B, | E, E, E, E, | A,2 G,2 | E, E, E, D, | C, C, D, E, | A,,4 |: %33
[M:6/8]"_Moments of   sin  and     months   of   woe,   Ye       can  –   not     fly           too    fast.                         Let heavenly love  pre – pare  my    soul,  And      call     her     to     the" A, A, C G,2 E,/D,/ | %34
 C,G, E, A,2 G,/F,/ | E,D, G,/F,/ E,A, E, | A,,3- A,,3 ::[M:4/4] z4 A,4 | A,2 A,2 A,>B, C2 | %39
 G,2 G,2 G,>A, B,2 | A,2 G,F, E,2 D,2 | %41
"_skies, Where years of long sal–va–tion roll,   And    glo   –  ry      ne   –  ver       dies,                        Where years of   long   sal  –  va–tion roll,  And    glo  –  ry     ne  –  ver   dies." G,6 E,2 | %42
 A,2 A,2 D,2 D,2 | G,2 G,2 C2 CB, | A,2 A,2 A,,2 A,,2 | E,6 E,2 | A,2 A,2 A,2 A,2 | %47
 G,2 C,2 F,D, E,2 | A,,B,, C,D, E,2 E,2 | A,,8 :| %50

